X: 38642
T: Stormy Cornageerie
R: polka
M: 2/4
K: Gmajor
|:A/B/c/d/ e d/B/|Ae dB|A/B/c/d/ ef|ge fd|
A/B/c/d/ e d/B/|Ae dB|A c/e/ dB|A2 A2:|
|:e f/e/ df|ef gf|e f/e/ dB|Ae dB|
e f/e/ df|ef gf|e f/e/ dB|A2 A2:|

